X: 12640
T: Farmer's Daughter, The
R: reel
M: 4/4
K: Amixolydian
||B|d3 e f2 ef|d2 de d2 dB|d3 e f2 ef|A2 ed c3/2A3/2B|
d3 e f2 ef|d2 de d2 dB|g2 ag f2 ef|A2 ed c3/2A3/2||
B|d2 fB BBfB|dBfB dBBd|c2 eA AAeA|cAeA c3/2A3/2B|
d2 fB BBfB|dBfB dBBd|c2 ag f2 ef|A2 ed c3/2A3/2||

